X:1
T:Title
%%score { ( 1 3 ) | ( 2 4 ) }
L:1/8
M:4/4
K:Ab
V:1 treble nm="Grand Piano"
V:3 treble 
V:2 bass 
V:4 bass 
V:1
 z4 z2[Q:1/4=90] [CE]2 | [Ec]3 [DEG] [CEB]ACE | GF E4 A2 | A3 A [=DF][DF][DG][DA] | [DB]6 [CE]2 | %5
 [Ec]3 [DEG] [CEB]ACE | GF E4 F2 | [EG]3 [EB] [F=d][Ac][GB][FA] |[M:3/4] z2 E4 | %9
[M:4/4] c c2 B B A3 | [FA] [FA]2 F F E3 | A3 A [=DA][DA][DB][Dc] | [EB]6 z2 | %13
 [Ee] [Ee]2 [Ec] [EB] [EA]3 | [=EA] [EA]2 [EG] [EG] F3 | %15
 EFGA c2 B2[Q:1/4=87][Q:1/4=84][Q:1/4=82][Q:1/4=79][Q:1/4=76][Q:1/4=73][Q:1/4=70] |[M:3/4] [CA]6 |] %17
V:2
 z4 z2 [A,,A,]2 | [A,,A,]3 B,, C,[E,CE][E,A,][E,A,C] | [=D,A,_C][D,A,C] [E,A,=C]4 [E,A,C]2 | %3
 [F,A,C]3 [F,A,C] [B,,A,][B,,A,][B,,F,][B,,F,] | [E,G,]6 [A,,A,]2 | %5
 [A,,A,]3 B,, C,[E,CE][E,A,][E,A,C] | [=D,A,_C][D,A,C] [E,A,=C]4 [E,A,C]2 | %7
 [B,,B,]3 [B,,G,] [B,,B,][B,,B,][B,,B,][B,,B,] |[M:3/4] z2 .B,2 z2 | %9
[M:4/4] [E,A,C] [E,A,C]2 [E,G,D] [E,G,D] [E,A,C]3 | [D,D] [D,D]2 [D,A,D] [D,A,D] [A,C]3 | %11
 [F,A,C]3 [F,A,C] [B,,F,][B,,B,][B,,B,][B,,A,] | [E,G,]6 z2 | %13
 [C,A,] [C,A,]2 [A,,A,] [B,,G,] [C,A,]3 | [C,C] [C,C]2 [C,B,] [C,B,] [F,A,]3 | %15
 [G,B,][F,B,=D][E,B,_D][F,A,C] [E,A,E]2 [E,G,D]2 |[M:3/4] [A,,A,]6 |] %17
V:3
 x8 | x8 | x8 | x8 | x8 | x8 | x8 | x8 |[M:3/4] C=D z ._D3 |[M:4/4] x8 | x8 | x8 | x8 | x8 | x8 | %15
 x8 |[M:3/4] x6 |] %17
V:4
 x8 | x8 | x8 | x8 | x8 | x8 | x8 | x8 |[M:3/4] [B,,A,][B,,A,B,] [E,G,]4 |[M:4/4] x8 | x8 | x8 | %12
 x8 | x8 | x8 | x8 |[M:3/4] x6 |] %17

